src/lib/packages/icons/src/assets/line/burger-lettuce.svg

<svg xmlns="http://www.w3.org/2000/svg" width="24" height="24" fill="none"><path fill="currentColor" d="M20 16.25H4c-.69 0-1.25.56-1.25 1.25v.5c0 2.42 1.33 3.75 3.75 3.75h11c2.42 0 3.75-1.33 3.75-3.75v-.5c0-.69-.56-1.25-1.25-1.25ZM19.75 18c0 1.58-.67 2.25-2.25 2.25h-11c-1.58 0-2.25-.67-2.25-2.25v-.25h15.5V18ZM4 11.75h16c.69 0 1.25-.56 1.25-1.25V10c0-4.71-3.63-7.75-9.25-7.75S2.75 5.29 2.75 10v.5c0 .69.56 1.25 1.25 1.25ZM4.25 10c0-3.85 2.97-6.25 7.75-6.25 4.78 0 7.75 2.4 7.75 6.25v.25H4.25V10Zm17.5 4.72c0 .41-.34.75-.75.75-1.05 0-1.61-.54-2.02-.93-.37-.35-.55-.51-.98-.51-.43 0-.61.16-.98.51-.41.39-.97.93-2.02.93s-1.61-.54-2.02-.93c-.37-.35-.55-.51-.98-.51-.43 0-.61.16-.98.51-.41.39-.97.93-2.02.93s-1.61-.54-2.02-.93c-.37-.35-.55-.51-.98-.51-.43 0-.61.16-.98.51-.41.39-.97.93-2.02.93-.41 0-.75-.34-.75-.75s.34-.75.75-.75.61-.16.98-.51c.41-.39.97-.93 2.02-.93s1.61.54 2.02.93c.37.35.55.51.98.51.43 0 .61-.16.98-.51.41-.39.97-.93 2.02-.93s1.61.54 2.02.93c.37.35.55.51.98.51.43 0 .61-.16.98-.51.41-.39.97-.93 2.02-.93s1.61.54 2.02.93c.37.35.55.51.98.51.43 0 .75.34.75.75ZM8.53 6.47a.75.75 0 1 1-1.06 0c.27-.28.78-.28 1.06 0Zm4-1a.75.75 0 1 1-1.059 1.06.75.75 0 0 1 1.059-1.06Zm4 1a.75.75 0 1 1-1.06 1.06.633.633 0 0 1-.16-.24.75.75 0 0 1 1.22-.82Z"/></svg>

<svg width="24" height="24" viewBox="0 0 24 24" fill="none" xmlns="http://www.w3.org/2000/svg">
<path d="M20 16.25H4C3.31 16.25 2.75 16.81 2.75 17.5V18C2.75 20.42 4.08 21.75 6.5 21.75H17.5C19.92 21.75 21.25 20.42 21.25 18V17.5C21.25 16.81 20.69 16.25 20 16.25ZM19.75 18C19.75 19.58 19.08 20.25 17.5 20.25H6.5C4.92 20.25 4.25 19.58 4.25 18V17.75H19.75V18ZM4 11.75H20C20.69 11.75 21.25 11.19 21.25 10.5V10C21.25 5.29 17.62 2.25 12 2.25C6.38 2.25 2.75 5.29 2.75 10V10.5C2.75 11.19 3.31 11.75 4 11.75ZM4.25 10C4.25 6.15 7.22 3.75 12 3.75C16.78 3.75 19.75 6.15 19.75 10V10.25H4.25V10ZM21.75 14.72C21.75 15.13 21.41 15.47 21 15.47C19.95 15.47 19.39 14.93 18.98 14.54C18.61 14.19 18.43 14.03 18 14.03C17.57 14.03 17.39 14.19 17.02 14.54C16.61 14.93 16.05 15.47 15 15.47C13.95 15.47 13.39 14.93 12.98 14.54C12.61 14.19 12.43 14.03 12 14.03C11.57 14.03 11.39 14.19 11.02 14.54C10.61 14.93 10.05 15.47 9 15.47C7.95 15.47 7.39001 14.93 6.98001 14.54C6.61001 14.19 6.43 14.03 6 14.03C5.57 14.03 5.38999 14.19 5.01999 14.54C4.60999 14.93 4.05 15.47 3 15.47C2.59 15.47 2.25 15.13 2.25 14.72C2.25 14.31 2.59 13.97 3 13.97C3.41 13.97 3.61001 13.81 3.98001 13.46C4.39001 13.07 4.95 12.53 6 12.53C7.05 12.53 7.60999 13.07 8.01999 13.46C8.38999 13.81 8.57 13.97 9 13.97C9.43 13.97 9.61001 13.81 9.98001 13.46C10.39 13.07 10.95 12.53 12 12.53C13.05 12.53 13.61 13.07 14.02 13.46C14.39 13.81 14.57 13.97 15 13.97C15.43 13.97 15.61 13.81 15.98 13.46C16.39 13.07 16.95 12.53 18 12.53C19.05 12.53 19.61 13.07 20.02 13.46C20.39 13.81 20.57 13.97 21 13.97C21.43 13.97 21.75 14.31 21.75 14.72ZM8.53 6.47C8.67 6.61 8.75 6.8 8.75 7C8.75 7.2 8.67 7.39 8.53 7.53C8.39 7.67 8.2 7.75 8 7.75C7.8 7.75 7.61 7.67 7.47 7.53C7.33 7.39 7.25 7.2 7.25 7C7.25 6.9 7.27 6.81001 7.31 6.71001C7.35 6.62001 7.4 6.54 7.47 6.47C7.74 6.19 8.25 6.19 8.53 6.47ZM12.53 5.47C12.67 5.61 12.75 5.8 12.75 6C12.75 6.1 12.73 6.18999 12.69 6.28999C12.65 6.37999 12.6 6.46 12.53 6.53C12.46 6.6 12.38 6.65 12.29 6.69C12.19 6.73 12.1 6.75 12 6.75C11.8 6.75 11.61 6.67 11.47 6.53C11.4 6.46 11.35 6.37999 11.31 6.28999C11.27 6.18999 11.25 6.1 11.25 6C11.25 5.8 11.33 5.61 11.47 5.47C11.68 5.26 12.01 5.19 12.29 5.31C12.38 5.34 12.46 5.4 12.53 5.47ZM16.53 6.47C16.67 6.61 16.75 6.8 16.75 7C16.75 7.1 16.73 7.19999 16.69 7.28999C16.65 7.37999 16.6 7.46 16.53 7.53C16.46 7.6 16.38 7.65 16.29 7.69C16.19 7.73 16.1 7.75 16 7.75C15.8 7.75 15.61 7.67 15.47 7.53C15.4 7.46 15.34 7.37999 15.31 7.28999C15.27 7.19999 15.25 7.1 15.25 7C15.25 6.8 15.33 6.61 15.47 6.47C15.67 6.26 16.01 6.19 16.29 6.31C16.38 6.35 16.46 6.4 16.53 6.47Z" fill="currentColor"/>
</svg>
